X:1018
T:Red Tom of the Hills
R:reel
C:Ed Reavy (1898-1988)
S:John Samuelsson, who got it from Jennikel Andersson
Z:id:hn-reel-1018
M:C|
L:1/8
K:Gdor
DG~G2 DEFD | GABc defa | gfdc (3Bcd BG | AcAF DEFD |
G2dG cFAF | GABc defa | gfdc B2Bd |1 cA^FA G2G=F :|2 cA^FA G3^f ||
|: g2=bg dgbg | ga=bg d2de | =f2af cfaf | fgaf dc=Bc |
dg~g2 =bg~g2 | =BGBd g^fde | =f2fa gfga |1 fdcA G3^f :|2 fdcA G2G=F ||

